X:270
T:score7
L:1/16
Q:1/4=96
M:1/8
I:linebreak $
K:Eb
 (B2 |[M:12/8] g6- g2f2g2 f6 e4) (B2 | g4) (c2 c'4) (g2 b6 a4) (g2 |$ f6 g4 d2 e6 c6) | %4
 (B2d'2c'2 bagacd e6) z4 (B2 |$ g6 fgf=efg f2 _e4- e)(fedef | g=Bc_dcf =eag_d'c'g b6 a4) (g2 |$ %7
 f6 g2g2d2 e6 c6) |[M:11/8] (B2d'2c'2 bagacd e6- e6) |] %9
